assets/icons/18px/internet-browser.svg

<svg width="19" height="18" viewBox="0 0 19 18" fill="none" xmlns="http://www.w3.org/2000/svg">
<g clip-path="url(#clip0_448_2003)">
<circle cx="9.66666" cy="9" r="7" stroke="white"/>
<path d="M8.60214 8.6763C8.79398 8.37981 9.04646 8.12734 9.34294 7.9355L12.2968 6.02418C12.523 5.87779 12.7889 6.14365 12.6425 6.36989L10.7312 9.32374C10.5393 9.62022 10.2869 9.8727 9.99039 10.0645L7.03653 11.9759C6.81029 12.1222 6.54444 11.8564 6.69083 11.6301L8.60214 8.6763Z" fill="white"/>
</g>
<defs>
<clipPath id="clip0_448_2003">
<rect width="18" height="18" fill="white" transform="translate(0.666656)"/>
</clipPath>
</defs>
</svg>

<svg width="19" height="18" fill="none" xmlns="http://www.w3.org/2000/svg"><g clip-path="url(#clip0_448_2003)"><circle cx="9.667" cy="9" r="7" stroke="#fff"/><path d="M8.602 8.676a2.5 2.5 0 0 1 .74-.74l2.955-1.912c.226-.146.492.12.345.346l-1.91 2.954a2.5 2.5 0 0 1-.742.74l-2.953 1.912c-.227.146-.493-.12-.346-.346l1.911-2.954z" fill="#fff"/></g><defs><clipPath id="clip0_448_2003"><path fill="#fff" transform="translate(.667)" d="M0 0H18V18H0z"/></clipPath></defs></svg>
